!!!!SEGMENT: pl-wumfc--r282--001-013_paderewski-ignacy-jan--exercises-1-exercise-13.krn
!!!cenid: 18xx:3172
!!!COM: Paderewski, Ignacy Jan
!!!COM-rismID: pe30029943
!!!CDT: 1860/11/18-1941/06/29
!!!CNT: Polish
!!!GTL: [Exercises 1]
!!!OTL: [Exercise] 13
!!!OMV: 013
!!!PDT:
!!!AGN:
!!!SMS-siglum: PL-Wumfc
!!!SMS-shelfmark: R282
!!!SMS-shelfwork: 001-013 G
!!!SMS-variant:
!!!SMS-altvar:
!!!NIFC-rismSourceID: 1001158933
!!!NIFC-rismChildID: 1001158933
!!!NIFC-islandoraID: pl-wumfc:419
!!!URL-pdf-islandora: https://repozytorium.nifc.pl/islandora/object/pl-wumfc%3A419/datastream/PDF/view
!!!URL-scan: https://polish.musicsources.pl/pl/lokalizacje/galeria/rekopisy/4702 @EN{Scan on Polish Music Sources Website} @PL{Skany w portalu Dziedzictwo Muzyki Polskiej w otwartym dostępie}
!!!ONB-nifc: UWAGA: pierwsza grupa ćwiczeń na skanach 0004-0007
!!!AIN: 1 piano
!!!key: G
!!!filter-modern: sic -sq | shed -k -e "s/LO:N:vis/LO:n:vis:/L" | shed -e "s/TX(.*):t=P:/tx$1:t=P:/LG" | autostem -r | modori -m |
**kern	**kern
*part1	*part1
*staff2	*staff1
*>[A,A,B]	*>[A,A,B]
*>A	*>A
*I"[Pianoforte]	*I"[Pianoforte]
*I'	*I'
*mI"Pianoforte	*mI"Pianoforte
*mI'pf	*mI'pf
*Ipiano	*Ipiano
*ICklav	*ICklav
*IGsolo	*IGsolo
*clefF4	*clefG2
*k[f#]	*k[f#]
*G:	*G:
!LO:MO:null:mod=*M6/4	!LO:MO:null:mod=*M6/4
*	*
=1	=1
!LO:TX:a:i:t=C. f	!LO:TX:t=P:global:problem=brak oznaczenia metrycznego / kluczy
2.G\	4g/
.	4gg\
.	4ff#\
2.A\	4ee\
.	4dd\
.	4cc\
=2	=2
2.B\	4b\
.	4dd\
.	4cc\
2.d\	4b\
.	4cc\
.	4dd\
=3	=3
2.G\	4ee\
.	4b\
.	4cc\
!LO:N:vis=2	!
2.F#\	4dd\
.	4a\
.	4b/
=4	=4
1.E	4cc/
.	4c/
.	4d/
.	4e/
.	4f#/
.	4g/
=5	=5
1.D	4a/
.	4d/
.	4e/
.	4f#/
.	4g/
.	4a/
=6	=6
1.D;	1.f#;
=7	=7
!LO:N:vis=2	!
2.E\	4g/
.	4cc\
.	4b\
!LO:N:vis=2	!
2.F#\	4a\
.	4b/
.	4cc/
=8	=8
!LO:N:vis=2	!
2.G\	4b\
.	4cc\
.	4dd\
!LO:N:vis=2	!
2.A\	4cc\
.	4b\
.	4a/
!!LO:LB:g=original
=9	=9
!LO:N:vis=2	!
2.B\	4g/
.	4d/
.	4e/
!LO:N:vis=2	!
2.A\	4f#/
.	4g/
.	4a/
=10	=10
1.G;	1.b;
=11:|!	=11:|!
*>B	*>B
!LO:N:vis=2	!
2.B\	4f#/
.	4e/
.	4f#/
!LO:N:vis=2	!
2.B\	4g#X/
.	4a/
.	4b/
=12	=12
!LO:N:vis=2	!
2.A\	4cc\
.	4dd\
.	4cc\
!LO:N:vis=2	!
2.B\	4b\
.	4cc\
.	4b\
=13	=13
!LO:N:vis=2	!
2.c\	4a/
.	4b\
.	4cc\
!LO:N:vis=2	!
2.B\	4dd\
.	4ee\
.	4dd 4b\
=14	=14
1.A;	1.cc;
=15	=15
!LO:N:vis=2	!
2.E\	4cc\
.	4dd\
.	4ee\
!LO:N:vis=2	!
2.F#\	4dd\
.	4a\
.	4cc\
=16	=16
!LO:N:vis=2	!
2.G\	4b\
.	4cc\
.	4dd\
!LO:N:vis=2	!
2.A\	4cc\
.	4b\
.	4a\
=17	=17
!LO:N:vis=2	!
2.B\	4g/
.	4a/
.	4b/
!LO:N:vis=2	!
2.A\	4cc\
.	4e/
.	4f#/
=18	=18
1.G;	1.g;
==	==
*-	*-
!!!system-decoration: {(s1,s2)}
!!!ENC: Berenika Jozajtis
!!!END: 2021-11-11
!!!ENC: Andrzej Kubiczek
!!!END: 2021-11-16
!!!ENC-modern: Andrzej Borzym
!!!END-modern: 2022-08-29
!!!YEC: Copyright 2022 Narodowy Instytut Fryderyka Chopina (https://polishscores.org)
!!!YEM: License CC-BY-4.0 (https://creativecommons.org/licenses/by/4.0)
